X:27
T:Double Bransle (1)
M:C|
L:1/4
K:C
G/^F/G/A/ B/c/ d | d c B/c/B/A/ | G/^F/G/A/ B/c/d/e/ | f/e/d/c/ B2 :|
|: G/^F/G/A/ B/c/ d | d c B c | A/B/ c B a/g/ | f/e/d/c/ B2 |
G> A B/c/ d | A/B/ c B A/B/ | c d/c/ B c/B/ | A/G/ A G2 :|
